X: 1
T: THE BLUE-EYED STRANGER
O: Bucknell
S: CJS(MSS)
Z: John Chambers 2004-6-20
B: Morris Ring
M: 4/4
L: 1/8
P: A.(A2B)3.A2
K: G
P: A
A \
|: d2D2 D2GF | EFGA B2A2 | B2d2 cBAG | E3F G4 :|
P: B
[| GABc d2d2 | edcB A4 | GABc d2d2 | B3c d4 |
| GABc d2d2 | edcB A2G2 | A2Bc BAGF | E3F G4 |]
